packages/kaspersky-hexa-ui-icons/src/iconsSVGs/16/StatusErrorSolid.svg

<svg width="16" height="16" viewBox="0 0 16 16" fill="none" xmlns="http://www.w3.org/2000/svg">
<path fill-rule="evenodd" clip-rule="evenodd" d="M8 15C11.866 15 15 11.866 15 8C15 4.13401 11.866 1 8 1C4.13401 1 1 4.13401 1 8C1 11.866 4.13401 15 8 15ZM10.7286 5.27168C11.0215 5.56457 11.0215 6.03944 10.7286 6.33234L9.06063 8.00025L10.7281 9.66773C11.021 9.96063 11.021 10.4355 10.7281 10.7284C10.4352 11.0213 9.96031 11.0213 9.66742 10.7284L7.99996 9.0609L6.33251 10.7283C6.03962 11.0212 5.56474 11.0212 5.27185 10.7283C4.97896 10.4354 4.97896 9.96056 5.27186 9.66766L6.93931 8.00024L5.27142 6.33233C4.97853 6.03943 4.97854 5.56456 5.27143 5.27167C5.56433 4.97878 6.0392 4.97878 6.33209 5.27168L7.99998 6.93958L9.66792 5.27167C9.96081 4.97878 10.4357 4.97878 10.7286 5.27168Z" fill="black"/>
</svg>

<svg xmlns="http://www.w3.org/2000/svg" width="16" height="16" fill="none" viewBox="0 0 16 16"><path fill="#000" fill-rule="evenodd" d="M8 15c3.866 0 7-3.134 7-7s-3.134-7-7-7-7 3.134-7 7 3.134 7 7 7m2.7286-9.7283a.75.75 0 0 1 0 1.0606l-1.668 1.668 1.6675 1.6674a.75.75 0 1 1-1.0607 1.0607L8 9.0609l-1.6675 1.6674A.75.75 0 1 1 5.272 9.6677l1.6674-1.6675-1.6679-1.6679a.75.75 0 0 1 1.0607-1.0606L8 6.9396l1.668-1.668a.75.75 0 0 1 1.0606 0"/></svg>
